!!!OTL: HOERT DIE LERCHE SIE SINGT
!!!ARE: Europa, Mitteleuropa, Deutschland
!!!SCT: F0281
!!!YEM: Copyright 1995, estate of Helmut Schaffrath.
**kern
*ICvox
*Ivox
*M6/8
*k[f#c#]
*D:
=1
{4f#
8f#
8.g
16f#
8g
=2
4.a
4dd
8r}
=3
{8.ff#
16ee
8dd
8.dd
16cc#
8b
=4
4.a
4f#
8r}
=5
{8.ff#
16ee
8dd
8.dd
16cc#
8b
=6
4.a
4f#
8r}
=7
{8.e
16f#
8g#
8.a
16b
8g#
=8
4.a
4.g}
=9
{8.f#
16e
8f#
8.g
16f#
8g
=10
4a
8dd
4.ff#}
=11
{8dd
8a
8f#
8a
8g
8e
=12
[4.d
4d]
8r}
==
!!!AGN: Jugend - Lied, Natur
!!!ONB: ESAC (Essen Associative Code) Database: FINK
!!!AMT: compound duple
!!!AIN: vox
!!!EED: Helmut Schaffrath
!!!EEV: 1.0
*-
